X: 26143
T: McHugh's
R: reel
M: 4/4
K: Edorian
|:B2BA BeeB|dBAG FDDA|B2BA BeeB|dBAF FEE2:|
ed B/c/d efge|fdad fddf|edBd efge|fedf e2gf|
ed B/c/d efge|fdad fdef|g2ge f2fd|edBA Bded||

